source/img/svg/vk-icon.svg

<svg width="22" height="13" viewBox="0 0 22 13" fill="none" xmlns="http://www.w3.org/2000/svg">
<path d="M21.3283 11.0851C21.2718 10.9904 20.9221 10.2306 19.2395 8.66892C17.478 7.03361 17.7146 7.29915 19.8363 4.47154C21.1285 2.74947 21.6451 1.69782 21.4834 1.24824C21.3296 0.819695 20.3792 0.932747 20.3792 0.932747L17.219 0.951151C17.219 0.951151 16.985 0.919602 16.8102 1.02345C16.6406 1.12599 16.5315 1.36261 16.5315 1.36261C16.5315 1.36261 16.0306 2.69557 15.3628 3.82872C13.9549 6.2199 13.391 6.3461 13.1609 6.19755C12.6259 5.85182 12.76 4.80675 12.76 4.06534C12.76 1.74777 13.111 0.781573 12.0751 0.531807C11.7307 0.44899 11.4783 0.393778 10.5989 0.384576C9.47099 0.372745 8.5153 0.38852 7.97502 0.652746C7.61483 0.828897 7.33746 1.22195 7.50704 1.2443C7.71605 1.2719 8.18929 1.37181 8.44037 1.7136C8.76507 2.15397 8.75324 3.14515 8.75324 3.14515C8.75324 3.14515 8.9399 5.87286 8.31812 6.21201C7.89089 6.44469 7.30591 5.97013 6.05051 3.7998C5.40769 2.689 4.9213 1.45989 4.9213 1.45989C4.9213 1.45989 4.82797 1.23115 4.66102 1.1089C4.45858 0.960353 4.17463 0.913029 4.17463 0.913029L1.16955 0.931433C1.16955 0.931433 0.71866 0.944579 0.553025 1.14045C0.405795 1.31528 0.541194 1.67547 0.541194 1.67547C0.541194 1.67547 2.89425 7.17953 5.55755 9.95456C8.00131 12.4982 10.775 12.3313 10.775 12.3313H12.0317C12.0317 12.3313 12.4117 12.2892 12.6049 12.0802C12.7837 11.8883 12.7771 11.5281 12.7771 11.5281C12.7771 11.5281 12.7521 9.84151 13.5356 9.59306C14.3072 9.34855 15.2984 11.2231 16.3488 11.9448C17.1427 12.4903 17.7461 12.3707 17.7461 12.3707L20.5553 12.3313C20.5553 12.3313 22.025 12.2406 21.3283 11.0851Z" fill="#A07B50"/>
</svg>

<svg width="22" height="13" fill="none" xmlns="http://www.w3.org/2000/svg"><path d="M21.328 11.085c-.056-.095-.406-.854-2.088-2.416-1.762-1.635-1.525-1.37.596-4.197 1.293-1.723 1.81-2.774 1.647-3.224C21.33.82 20.38.933 20.38.933L17.22.95s-.234-.031-.409.072c-.17.103-.278.34-.278.34s-.501 1.333-1.17 2.466c-1.407 2.39-1.971 2.517-2.201 2.369-.535-.346-.401-1.391-.401-2.133 0-2.317.351-3.283-.685-3.533-.344-.083-.597-.138-1.476-.147C9.47.373 8.515.389 7.975.653c-.36.176-.638.569-.468.591.21.028.682.128.933.47.325.44.313 1.431.313 1.431s.187 2.728-.435 3.067c-.427.233-1.012-.242-2.267-2.412-.643-1.111-1.13-2.34-1.13-2.34s-.093-.229-.26-.351a1.31 1.31 0 00-.486-.196L1.17.931s-.451.014-.617.21c-.147.174-.012.534-.012.534s2.353 5.505 5.017 8.28C8 12.498 10.775 12.33 10.775 12.33h1.257s.38-.042.573-.25c.179-.193.172-.553.172-.553s-.025-1.686.759-1.935c.771-.244 1.762 1.63 2.813 2.352.794.545 1.397.426 1.397.426l2.81-.04s1.469-.09.772-1.246z" fill="#A07B50"/></svg>
